X:1
T:[ID 2-30]
T:[ID 2-30]
T:Bezeichnung standardisiert: Gesundheit Herr Nachbar; Trinklied. Wenns immer so w\"ar; In dieser Quelle auch als: Waltzer In dieser Quelle auch als: Waltzer Gesundheit Herr Nachbar da Gl\"aschen ist leer In dieser Quelle auch als: Waltzer oder Schleifer Tantz. In dieser Quelle auch als: Waltzer Wenns immer so w\"ar, so ists recht In anderer Quelle: 1. Walzer - W. M. Visser 1817 (Anm. S. Wascher);
T:Urheber unbekannt Datum in der hier transkribierten schriftlichen Quelle: 1796
C:Urheber unbekannt
C:Datum in der hier transkribierten schriftlichen Quelle: 1796
L:1/8
M:6/8
K:G
V:1 treble 
V:1
 D | DGG GBB | Bdd dgg | g>ab def | ggg g2 D | GGD GGD | GGD G2 A | BBA BBA | BBA B2 d | dgB dcc | %10
 cDc cBd | dgB dBB | cDc cBA | BBB AAA | ^ccc d2 D | GG/A/B/G/ EEE | cAF G2 B | %17
 cc/B/c/e/ dd/c/B/d/ | cc/B/c/e/ d2 B | cc/B/c/e/ d^c/d/B/G/ | DGF G2 B | cc/B/c/e/ dd/c/B/d/ | %22
 cc/B/c/e/ d2 B | cc/B/c/e/ d^c/d/B/G/ | DGF G/A/B/c/d/c/ | B/A/GF G/A/B/c/d/c/ | %26
 BA/G/F/"^ausgerissen"G/ x x x | ec/e/g/e/ e/d/c/B/A/G/ | F/G/A/B/c/d/ cBd | %29
 ec/e/g/e/ e/d/c/B/A/G/ | F/G/A/B/c/A/ G2 |] %31

